static/img/menus/ico-camera-fail.svg

<svg width="23" height="21" viewBox="0 0 23 21" fill="none" xmlns="http://www.w3.org/2000/svg">
<path d="M7 8.91499V7.41499C6.98062 7.27916 6.99312 7.14067 7.03653 7.01051C7.07993 6.88034 7.15303 6.76207 7.25005 6.66505C7.34708 6.56802 7.46535 6.49492 7.59552 6.45152C7.72568 6.40812 7.86417 6.39561 8 6.41499H16C16.1358 6.39561 16.2743 6.40812 16.4045 6.45152C16.5346 6.49492 16.6529 6.56802 16.7499 6.66505C16.847 6.76207 16.9201 6.88034 16.9635 7.01051C17.0069 7.14067 17.0194 7.27916 17 7.41499V13.415C17.0194 13.5508 17.0069 13.6893 16.9635 13.8195C16.9201 13.9496 16.847 14.0679 16.7499 14.1649C16.6529 14.262 16.5346 14.3351 16.4045 14.3785C16.2743 14.4219 16.1358 14.4344 16 14.415H8C7.86417 14.4344 7.72568 14.4219 7.59552 14.3785C7.46535 14.3351 7.34708 14.262 7.25005 14.1649C7.15303 14.0679 7.07993 13.9496 7.03653 13.8195C6.99312 13.6893 6.98062 13.5508 7 13.415V11.915L3 13.915V6.91499L7 8.91499V11.915Z" fill="#3974FF"/>
<path d="M7 8.91499V7.41499C6.98062 7.27916 6.99312 7.14067 7.03653 7.01051C7.07993 6.88034 7.15303 6.76207 7.25005 6.66505C7.34708 6.56802 7.46535 6.49492 7.59552 6.45152C7.72568 6.40812 7.86417 6.39561 8 6.41499H16C16.1358 6.39561 16.2743 6.40812 16.4045 6.45152C16.5346 6.49492 16.6529 6.56802 16.7499 6.66505C16.847 6.76207 16.9201 6.88034 16.9635 7.01051C17.0069 7.14067 17.0194 7.27916 17 7.41499V13.415C17.0194 13.5508 17.0069 13.6893 16.9635 13.8195C16.9201 13.9496 16.847 14.0679 16.7499 14.1649C16.6529 14.262 16.5346 14.3351 16.4045 14.3785C16.2743 14.4219 16.1358 14.4344 16 14.415H8C7.86417 14.4344 7.72568 14.4219 7.59552 14.3785C7.46535 14.3351 7.34708 14.262 7.25005 14.1649C7.15303 14.0679 7.07993 13.9496 7.03653 13.8195C6.99312 13.6893 6.98062 13.5508 7 13.415V11.915M7 8.91499L3 6.91499V13.915L7 11.915M7 8.91499V11.915" stroke="currentColor" stroke-linecap="round" stroke-linejoin="round"/>
<path d="M13.3892 10.1675C12.9016 9.67988 12.9014 8.88676 13.3886 8.3995L14.8889 6.89924L13.5604 5.57079C13.0732 5.08353 13.0732 4.29071 13.5604 3.80345C14.0477 3.31619 14.8405 3.31619 15.3278 3.80345L16.6562 5.13189L17.9847 3.80345C18.4723 3.31585 19.2657 3.31585 19.7533 3.80345C20.2405 4.29071 20.2403 5.08382 19.7526 5.57143L18.4242 6.89987L19.9245 8.40014C20.4117 8.8874 20.4117 9.68022 19.9245 10.1675C19.4372 10.6547 18.6444 10.6547 18.1571 10.1675L16.6569 8.66722L15.1566 10.1675C14.6693 10.6547 13.8765 10.6547 13.3892 10.1675Z" fill="#FF0000"/>
<path d="M13.7428 9.81388C14.0355 10.1066 14.5103 10.1066 14.803 9.81388L16.6569 7.96006L18.5107 9.81388C18.8034 10.1066 19.2782 10.1066 19.5709 9.81388C19.8637 9.52114 19.8637 9.04639 19.5709 8.75365L17.7171 6.89983L19.3991 5.21783C19.6925 4.92445 19.6925 4.4497 19.3997 4.15696C19.1063 3.86358 18.6316 3.86358 18.3382 4.15696L16.6562 5.83895L14.9742 4.15696C14.6815 3.86422 14.2067 3.86422 13.914 4.15696C13.6213 4.4497 13.6213 4.92445 13.914 5.21719L15.596 6.89919L13.7422 8.75301C13.4494 9.04575 13.4494 9.5205 13.7428 9.81388ZM13.0357 10.521C12.3531 9.83843 12.3528 8.72811 13.0351 8.0459L14.1818 6.89919L13.2069 5.9243C12.5247 5.24209 12.5247 4.13206 13.2069 3.44985C13.8891 2.76764 14.9991 2.76764 15.6813 3.44985L16.6562 4.42474L17.6311 3.44985C18.3137 2.7673 19.4243 2.7673 20.1068 3.44985C20.789 4.13206 20.7888 5.24238 20.1062 5.92494L19.1313 6.89983L20.278 8.04654C20.9602 8.72875 20.9602 9.83878 20.278 10.521C19.5958 11.2032 18.4858 11.2032 17.8036 10.521L16.6569 9.37428L15.5101 10.521C14.8279 11.2032 13.7179 11.2032 13.0357 10.521Z" fill="currentColor"/>
<defs>
<clipPath id="clip0_1919_33">
<rect width="22.728" height="20.415" fill="white"/>
</clipPath>
</defs>
</svg>

<svg xmlns="http://www.w3.org/2000/svg" width="23" height="21" fill="none" viewBox="0 0 23 21"><path fill="#3974ff" d="M7 8.915v-1.5a.884.884 0 0 1 1-1h8a.884.884 0 0 1 1 1v6a.884.884 0 0 1-1 1H8a.884.884 0 0 1-1-1v-1.5l-4 2v-7zv3Z"/><path stroke="currentColor" stroke-linecap="round" stroke-linejoin="round" d="M7 8.915v-1.5a.884.884 0 0 1 1-1h8a.884.884 0 0 1 1 1v6a.884.884 0 0 1-1 1H8a.884.884 0 0 1-1-1v-1.5m0-3-4-2v7l4-2m0-3v3"/><path fill="red" d="M13.39 10.168a1.25 1.25 0 0 1-.001-1.768l1.5-1.5-1.329-1.33a1.25 1.25 0 0 1 0-1.767 1.25 1.25 0 0 1 1.768 0l1.328 1.329 1.329-1.329a1.25 1.25 0 0 1 1.768 0c.488.488.487 1.28 0 1.768L18.424 6.9l1.5 1.5c.488.487.488 1.28 0 1.768a1.25 1.25 0 0 1-1.767 0l-1.5-1.5-1.5 1.5a1.25 1.25 0 0 1-1.768 0"/><path fill="currentColor" d="M13.743 9.814a.75.75 0 0 0 1.06 0l1.854-1.854 1.854 1.854a.75.75 0 0 0 1.06-1.06L17.717 6.9 19.4 5.218a.75.75 0 1 0-1.06-1.061l-1.683 1.682-1.682-1.682a.75.75 0 0 0-1.06 1.06L15.596 6.9l-1.854 1.854a.75.75 0 0 0 0 1.06m-.707.707a1.75 1.75 0 0 1 0-2.475l1.146-1.147-.975-.975a1.75 1.75 0 0 1 0-2.474 1.75 1.75 0 0 1 2.474 0l.975.975.975-.975a1.753 1.753 0 0 1 2.476 0 1.75 1.75 0 0 1 0 2.475l-.976.975 1.147 1.147a1.75 1.75 0 0 1 0 2.474 1.75 1.75 0 0 1-2.474 0l-1.147-1.147-1.147 1.147a1.75 1.75 0 0 1-2.474 0"/></svg>
